X:1
T:The Offering
T:Edwin Othello Excell
T:The Offering
T:Public Domain
T:Public Domain
C:Edwin Othello Excell
Z:Public Domain
%%score 1 ( 2 3 )
L:1/8
M:3/4
K:Bb
V:1 treble 
V:2 bass 
V:3 bass 
V:1
 [DF] | [DF]>[B,D] [B,D]3 [FB] | [FA]>[EG] [EG]3 [A,C] | [DF]4- [DF][A,C] | ([CE]2 [B,D]3) [DF] | %5
w: 1.~Lord,|take my all— the|gift is small For|Thee, * for|Thee; * What|
w: 1.~Dare|I re- fuse, my|life to use For|Thee, * for|Thee; * Who|
w: 3.~Would|I had more, Earth’s|rich- est store, For|Thee, * for|Thee; * Thy|
w: 4.~By|grace di- vine, seal|what is mine For|Thee, * for|Thee; * Who|
w: 5.~Lord,|here am I, to|live or die For|Thee, * for|Thee; * Thy|
 [DF]>[B,D] [B,D]3 [FB] | [FA]>[EG] [EG]3 [EG] | [=Ec]4- [Ec][EG] | ([_EB]2 [EA]3) [EF] | %9
w: hast Thou done, O|bless- èd One, For|me, * for|me! * What|
w: shed Thy blood, a|cleans- ing flood, For|me, * for|me? * Who|
w: love has met a|bound- less debt, For|me, * for|me; * Thy|
w: suf- fered loss, and|bore the cross, For|me, * for|me; * Who|
w: sac- ri- fice has|paid the price For|me, * for|me; * Thy|
 [DFd]>[Fc] [FB]3 [FA] | [FA]>[EG] [EG]3 [EB] | [DF]4- [DF][B,D] | ([A,C]2 [F,B,]3) |] %13
w: hast Thou done, O|bless- èd One, For|me, * for|me! *|
w: shed Thy blood, a|cleans- ing flood, For|me, * for|me? *|
w: love has met a|bound- less debt, For|me, * for|me. *|
w: suf- fered loss, and|bore the cross, For|me, * for|me. *|
w: sac- ri- fice has|paid the price For|me, * for|me. *|
V:2
 [B,,B,] | [B,,B,]>[B,,F,] [B,,F,]3 [D,B,] | [E,B,]>[E,B,] [E,B,]3 F, | F,4- F,F, | %4
 [B,,F,]2- [B,,F,]3 [B,,B,] | [B,,B,]>[B,,F,] [B,,F,]3 [D,B,] | [E,B,]>[E,B,] [E,B,]3 [E,B,] | %7
 [C,B,]4- [C,B,][C,B,] | [F,C]2- [F,C]3 [F,A,] | [B,,B,]>[C,A,] [D,B,]3 [E,B,] | %10
 [E,B,]>[E,B,] [E,B,]3 [G,B,] | B,4- B,[B,,F,] | ([F,,E,]2 [B,,D,]3) |] %13
V:3
 x | x6 | x5 F, | F,4- F,F, | x6 | x6 | x6 | x6 | x6 | x6 | x6 | B,4- B, x | x5 |] %13

